Newaita-dark/apps/24/mxtools-icon-96.svg

<svg height="24" viewBox="0 0 24 24" width="24" xmlns="http://www.w3.org/2000/svg" xmlns:xlink="http://www.w3.org/1999/xlink"><linearGradient id="a" gradientUnits="userSpaceOnUse" x1="11.90739" x2="11.90739" y1="21.02545225" y2="22.01773525002"><stop offset="0" stop-opacity=".27451"/><stop offset="1" stop-opacity="0"/></linearGradient><linearGradient id="b"><stop offset="0" stop-opacity=".313726"/><stop offset=".222222" stop-opacity=".27451"/><stop offset="1" stop-opacity="0"/></linearGradient><radialGradient id="c" cx="450.908936" cy="189.579361" gradientTransform="matrix(.00000013 -.0585994 -.105479 -.00000008 39.097986 47.696499)" gradientUnits="userSpaceOnUse" r="21.166656" xlink:href="#b"/><radialGradient id="d" cx="450.908936" cy="189.579361" gradientTransform="matrix(-.00000013 .0585994 .105479 .00000008 -15.28321 -5.645609)" gradientUnits="userSpaceOnUse" r="21.166656" xlink:href="#b"/><radialGradient id="e" cx="450.908936" cy="189.579361" gradientTransform="matrix(-.00000013 -.0585994 .105479 -.00000008 -15.28321 47.696499)" gradientUnits="userSpaceOnUse" r="21.166656" xlink:href="#b"/><radialGradient id="f" cx="450.908936" cy="189.579361" gradientTransform="matrix(.00000013 .0585994 -.105479 .00000008 39.097985 -5.64561)" gradientUnits="userSpaceOnUse" r="21.166656" xlink:href="#b"/><linearGradient id="g" gradientUnits="userSpaceOnUse" x1="7.93826174998" x2="7.93826174998" y1="21.02545025" y2="2.17207850005"><stop offset="0" stop-color="#42a5f5"/><stop offset="1" stop-color="#64b5f6"/></linearGradient><linearGradient id="h" gradientUnits="userSpaceOnUse" x1="11.907393" x2="11.907393" y1="21.02545173644" y2="2.17207923641"><stop offset="0" stop-color="#bdbdbd"/><stop offset="1" stop-color="#e0e0e0"/></linearGradient><path d="m4.464844 20.953125h14.882812v1.101563h-14.882812zm0 0" fill="url(#a)"/><path d="m19.347656 21.027344h1.988282v-.996094h-1.988282zm0 0" fill="url(#c)"/><path d="m4.464844 21.027344h-1.984375v.992187h1.984375zm0 0" fill="url(#d)"/><path d="m4.464844 21.027344h-1.984375v-.996094h1.984375zm0 0" fill="url(#e)"/><path d="m19.347656 21.027344h1.988282v.992187h-1.988282zm0 0" fill="url(#f)"/><path d="m3.472656 2.171875h16.867188c.550781 0 .996094.445313.996094.992187v16.867188c0 .550781-.445313.996094-.996094.996094h-16.867188c-.546875 0-.992187-.445313-.992187-.996094v-16.867188c0-.546874.445312-.992187.992187-.992187zm0 0" fill="url(#g)"/><path d="m3.472656 2.234375c-.550781 0-.992187.441406-.992187.992187v.125c0-.550781.441406-.996093.992187-.996093h16.867188c.550781 0 .996094.445312.996094.996093v-.125c0-.550781-.445313-.992187-.996094-.992187zm0 0" fill="#e6e6e6" fill-opacity=".392157"/><path d="m3.472656 20.964844c-.550781 0-.992187-.445313-.992187-.992188v-.125c0 .550782.441406.992188.992187.992188h16.867188c.550781 0 .996094-.441406.996094-.992188v.125c0 .546875-.445313.992188-.996094.992188zm0 0" fill-opacity=".196078"/><path d="m17.816406 5.347656-2.148437.578125c-.125.03125-.226563.101563-.300781.195313l-.070313-.269532c-.054687.117188-.066406.25-.03125.382813l.101563.382813c.074218-.09375.175781-.164063.300781-.195313l2.53125-.679687c-.066407-.078126-.132813-.15625-.207031-.230469-.054688-.054688-.113282-.109375-.175782-.164063zm-6.496094.972656c-.03125.078126-.082031.152344-.144531.214844l-.488281.484375-.195312-.195312-.246094.25.441406.441406.488281-.484375c.191407-.191406.242188-.472656.144531-.710938zm1.859376.941407-.058594.054687c0-.015625 0-.03125-.003906-.046875-.015626.179688-.011719.363281.003906.542969l.171875-.167969c-.035157-.085937-.0625-.175781-.085938-.269531-.011719-.035156-.019531-.074219-.027343-.113281zm5.609374.6875-.132812.035156c-.304688.855469-1.007812 1.546875-1.953125 1.800781-.628906.167969-1.261719.117188-1.820313-.109375l-.769531.769531-.195312-.195312-.25.246094.445312.445312.769531-.769531c.558594.226563 1.191407.277344 1.820313.109375 1.136719-.304688 1.925781-1.242188 2.085937-2.332031zm-13.332031.230469c-.097656.234374-.050781.515624.140625.710937l1.394532 1.394531c.257812.257813.671874.257813.929687 0l1.085937-1.085937 1.363282 1.367187.445312-.445312-.25-.246094-.195312.195312-1.363282-1.367187-1.085937 1.085937c-.257813.257813-.671875.257813-.929687 0l-1.394532-1.394531c-.0625-.0625-.109375-.136719-.140625-.214843zm6.972657 3.949218-.863282.863282-.152344-.238282-.195312.195313.347656.539062.863282-.863281 2.199218 2.199219.382813-.507813-.214844-.210937-.167969.222656zm7.625 6.226563c-.097657.28125-.359376.503906-.707032.503906h-14.882812c-.34375 0-.605469-.222656-.707032-.503906-.167968.46875.175782 1 .707032 1h14.882812c.539063 0 .875-.535157.707032-1zm0 0" fill-opacity=".235294"/><path d="m74.076259-168.671091h359.798975c11.748878 0 21.247971 9.499093 21.247971 21.164646v359.798974c0 11.748878-9.499093 21.247971-21.247971 21.247971h-359.798975c-11.665552 0-21.164645-9.499093-21.164645-21.247971v-359.798974c0-11.665553 9.499093-21.164646 21.164645-21.164646zm0 0" fill="none" stroke="#212121" stroke-linecap="round" stroke-width="3" transform="matrix(.0468795 0 0 .0468795 0 10.079087)"/><path d="m9.316406 4.109375c-.167968 0-.335937.0625-.464844.191406l-3.253906 3.253907c-.253906.257812-.253906.671874 0 .929687l1.394532 1.394531c.257812.257813.671874.257813.929687 0l1.085937-1.085937 1.808594 1.808593-.859375.859376-.398437-.613282c-.136719-.214844-.375-.34375-.628906-.34375-.253907 0-.492188.128906-.628907.34375l-4.464843 6.945313c-.320313.5.035156 1.15625.628906 1.15625h14.882812c.617188 0 .972656-.707031.601563-1.199219l-2.976563-3.96875c-.191406-.253906-.5-.347656-.78125-.277344l-2.523437-2.523437 1.214843-1.214844c.558594.226563 1.191407.277344 1.820313.109375 1.136719-.304688 1.925781-1.242188 2.085937-2.332031l-2.53125.679687c-.304687.082032-.617187-.101562-.699218-.40625l-.292969-1.101562c-.082031-.304688.097656-.617188.402344-.699219l2.53125-.679687c-.066407-.078126-.132813-.15625-.207031-.230469-.695313-.703125-1.738282-1.019531-2.765626-.746094-1.53125.410156-2.429687 1.96875-2.019531 3.496094.023438.09375.050781.183593.085938.269531l-1.238281 1.238281-1.808594-1.808593.929687-.929688c.257813-.257812.257813-.671875 0-.929688l-1.394531-1.394531c-.128906-.128906-.296875-.191406-.464844-.191406zm3.113282 8.109375 2.582031 2.578125-1.570313 2.089844-2.222656-3.457031zm0 0" fill="url(#h)"/><path d="m9.316406 4.109375c-.167968 0-.335937.0625-.464844.191406l-3.253906 3.253907c-.164062.167968-.222656.398437-.175781.613281.027344-.117188.085937-.226563.175781-.316407l3.253906-3.253906c.128907-.128906.296876-.191406.464844-.191406.167969 0 .335938.0625.464844.191406l1.394531 1.394532c.089844.089843.148438.199218.175781.316406.046876-.214844-.011718-.445313-.175781-.613282l-1.394531-1.394531c-.128906-.128906-.296875-.191406-.464844-.191406zm6.628906.152344c-.238281 0-.480468.035156-.71875.097656-1.332031.355469-2.183593 1.582031-2.117187 2.902344.0625-1.203125.886719-2.277344 2.117187-2.605469.238282-.066406.480469-.097656.71875-.097656.773438-.007813 1.507813.300781 2.039063.835937l.214844-.058593c-.066407-.078126-.132813-.15625-.207031-.230469-.53125-.539063-1.269532-.851563-2.046876-.84375zm-.640624 2.605469c-.058594.121093-.078126.261718-.039063.402343.007813-.035156.023437-.074219.039063-.109375l.253906.953125c.082031.304688.394531.484375.699218.402344l2.46875-.660156c.027344-.101563.046876-.207031.0625-.3125l-2.53125.679687c-.304687.082032-.617187-.101562-.699218-.40625zm-4.78125.964843-.277344.277344.148437.148437.128907-.128906 1.53125 1.53125 1.113281-1.113281c.011719.054687.023437.109375.039062.160156.003907.015625.007813.03125.011719.046875l.074219-.070312c-.035157-.089844-.0625-.179688-.085938-.269532-.015625-.054687-.027343-.109374-.039062-.164062l-1.113281 1.113281zm-1.59375 2.671875c-.253907 0-.492188.128906-.628907.34375l-4.464843 6.945313c-.113282.175781-.140626.371093-.105469.550781.019531-.085938.050781-.171875.105469-.253906l4.464843-6.945313c.136719-.214843.375-.34375.628907-.34375.253906 0 .492187.128907.628906.34375l.398437.613281.582031-.582031.128907.128907.148437-.144532-.277344-.28125-.582031.582032-.398437-.613282c-.136719-.214844-.375-.34375-.628906-.34375zm5.019531.753906-.28125.277344.148437.148438.132813-.132813 2.242187 2.246094c.28125-.066406.589844.027344.78125.277344l2.976563 3.96875c.070312.097656.113281.199219.136719.300781.039062-.195312 0-.410156-.136719-.59375l-2.976563-3.96875c-.191406-.253906-.5-.347656-.78125-.277344zm-2.511719 2.507813-.21875.21875.117188.179687.101562-.101562 2.003906 3.121094 1.332032-1.773438.109374.113282.128907-.167969-.238281-.238281-1.332032 1.769531zm0 0" fill="#fff" fill-opacity=".588235"/><path d="m198.731022-127.341704c-3.582991 0-7.165982 1.333206-9.91572 4.082943l-69.410038 69.410038c-5.416149 5.499475-5.416149 14.331965 0 19.83144l29.747159 29.747159c5.499475 5.499475 14.331965 5.499475 19.83144 0l23.164454-23.164454 38.57965 38.579649-18.331583 18.331583-8.499189-13.082084c-2.916388-4.582896-7.999236-7.332634-13.415385-7.332634-5.41615 0-10.498997 2.749738-13.415386 7.332634l-95.240905 148.152518c-6.83268 10.665649.749929 24.664312 13.415386 24.664312h317.469683c13.16541 0 20.748019-15.081893 12.832108-25.580891l-63.493937-84.658582c-4.082943-5.416149-10.665648-7.415958-16.665075-5.916102l-53.828193-53.828193 25.914192-25.914192c11.915529 4.832872 25.41424 5.916102 38.829625 2.333111 24.247685-6.499379 41.079411-26.49747 44.495751-49.74525l-53.994843 14.498616c-6.49938 1.749833-13.16541-2.16646-14.915243-8.665839l-6.249403-23.497756c-1.749833-6.49938 2.083134-13.16541 8.582514-14.915243l53.994844-14.498615c-1.416532-1.666508-2.833063-3.333015-4.416245-4.916197-14.831917-14.998568-37.079793-21.747924-58.994367-15.915147-32.663547 8.749164-51.828384 41.995989-43.079219 74.576211.499952 1.999809 1.08323 3.916293 1.833158 5.749451l-26.414144 26.414145-38.579649-38.57965 19.831439-19.831439c5.499475-5.499475 5.499475-14.331965 0-19.83144l-29.747159-29.747159c-2.749738-2.749737-6.332729-4.082943-9.91572-4.082943zm66.410325 172.983481 55.078074 54.994748-33.496802 44.579076-47.412139-73.742958zm0 0" fill="none" stroke="#212121" stroke-linecap="round" stroke-linejoin="round" stroke-width="3" transform="matrix(.0468795 0 0 .0468795 0 10.079087)"/></svg>

<?xml version="1.0" encoding="UTF-8"?>
<svg xmlns="http://www.w3.org/2000/svg" xmlns:xlink="http://www.w3.org/1999/xlink" width="24px" height="24px" viewBox="0 0 24 24" version="1.1">
<defs>
<linearGradient id="linear0" gradientUnits="userSpaceOnUse" x1="254" y1="233.5" x2="254" y2="254.666672" gradientTransform="matrix(0.0468795,0,0,0.0468795,-0.0000028613,10.079089)">
<stop offset="0" style="stop-color:rgb(0%,0%,0%);stop-opacity:0.27451;"/>
<stop offset="1" style="stop-color:rgb(0%,0%,0%);stop-opacity:0;"/>
</linearGradient>
<radialGradient id="radial0" gradientUnits="userSpaceOnUse" cx="450.908936" cy="189.579361" fx="450.908936" fy="189.579361" r="21.166656" gradientTransform="matrix(0.000000130628,-0.0585994,-0.105479,-0.0000000761539,39.097986,47.696499)">
<stop offset="0" style="stop-color:rgb(0%,0%,0%);stop-opacity:0.313726;"/>
<stop offset="0.222222" style="stop-color:rgb(0%,0%,0%);stop-opacity:0.27451;"/>
<stop offset="1" style="stop-color:rgb(0%,0%,0%);stop-opacity:0;"/>
</radialGradient>
<radialGradient id="radial1" gradientUnits="userSpaceOnUse" cx="450.908936" cy="189.579361" fx="450.908936" fy="189.579361" r="21.166656" gradientTransform="matrix(-0.000000130628,0.0585994,0.105479,0.0000000761539,-15.28321,-5.645609)">
<stop offset="0" style="stop-color:rgb(0%,0%,0%);stop-opacity:0.313726;"/>
<stop offset="0.222222" style="stop-color:rgb(0%,0%,0%);stop-opacity:0.27451;"/>
<stop offset="1" style="stop-color:rgb(0%,0%,0%);stop-opacity:0;"/>
</radialGradient>
<radialGradient id="radial2" gradientUnits="userSpaceOnUse" cx="450.908936" cy="189.579361" fx="450.908936" fy="189.579361" r="21.166656" gradientTransform="matrix(-0.000000130628,-0.0585994,0.105479,-0.0000000761539,-15.28321,47.696499)">
<stop offset="0" style="stop-color:rgb(0%,0%,0%);stop-opacity:0.313726;"/>
<stop offset="0.222222" style="stop-color:rgb(0%,0%,0%);stop-opacity:0.27451;"/>
<stop offset="1" style="stop-color:rgb(0%,0%,0%);stop-opacity:0;"/>
</radialGradient>
<radialGradient id="radial3" gradientUnits="userSpaceOnUse" cx="450.908936" cy="189.579361" fx="450.908936" fy="189.579361" r="21.166656" gradientTransform="matrix(0.000000130628,0.0585994,-0.105479,0.0000000761539,39.097985,-5.64561)">
<stop offset="0" style="stop-color:rgb(0%,0%,0%);stop-opacity:0.313726;"/>
<stop offset="0.222222" style="stop-color:rgb(0%,0%,0%);stop-opacity:0.27451;"/>
<stop offset="1" style="stop-color:rgb(0%,0%,0%);stop-opacity:0;"/>
</radialGradient>
<linearGradient id="linear1" gradientUnits="userSpaceOnUse" x1="169.333328" y1="233.5" x2="169.333328" y2="-168.666656" gradientTransform="matrix(0.0468795,0,0,0.0468795,0,10.079087)">
<stop offset="0" style="stop-color:rgb(25.882354%,64.705884%,96.078432%);stop-opacity:1;"/>
<stop offset="1" style="stop-color:rgb(39.215687%,70.980394%,96.470588%);stop-opacity:1;"/>
</linearGradient>
<linearGradient id="linear2" gradientUnits="userSpaceOnUse" x1="254" y1="251.469208" x2="254" y2="-150.697464" gradientTransform="matrix(0.0468795,0,0,0.0468795,0,9.236701)">
<stop offset="0" style="stop-color:rgb(74.117649%,74.117649%,74.117649%);stop-opacity:1;"/>
<stop offset="1" style="stop-color:rgb(87.843138%,87.843138%,87.843138%);stop-opacity:1;"/>
</linearGradient>
</defs>
<g id="surface1">
<path style=" stroke:none;fill-rule:nonzero;fill:url(#linear0);" d="M 4.464844 20.953125 L 19.347656 20.953125 L 19.347656 22.054688 L 4.464844 22.054688 Z M 4.464844 20.953125 "/>
<path style=" stroke:none;fill-rule:nonzero;fill:url(#radial0);" d="M 19.347656 21.027344 L 21.335938 21.027344 L 21.335938 20.03125 L 19.347656 20.03125 Z M 19.347656 21.027344 "/>
<path style=" stroke:none;fill-rule:nonzero;fill:url(#radial1);" d="M 4.464844 21.027344 L 2.480469 21.027344 L 2.480469 22.019531 L 4.464844 22.019531 Z M 4.464844 21.027344 "/>
<path style=" stroke:none;fill-rule:nonzero;fill:url(#radial2);" d="M 4.464844 21.027344 L 2.480469 21.027344 L 2.480469 20.03125 L 4.464844 20.03125 Z M 4.464844 21.027344 "/>
<path style=" stroke:none;fill-rule:nonzero;fill:url(#radial3);" d="M 19.347656 21.027344 L 21.335938 21.027344 L 21.335938 22.019531 L 19.347656 22.019531 Z M 19.347656 21.027344 "/>
<path style=" stroke:none;fill-rule:nonzero;fill:url(#linear1);" d="M 3.472656 2.171875 L 20.339844 2.171875 C 20.890625 2.171875 21.335938 2.617188 21.335938 3.164062 L 21.335938 20.03125 C 21.335938 20.582031 20.890625 21.027344 20.339844 21.027344 L 3.472656 21.027344 C 2.925781 21.027344 2.480469 20.582031 2.480469 20.03125 L 2.480469 3.164062 C 2.480469 2.617188 2.925781 2.171875 3.472656 2.171875 Z M 3.472656 2.171875 "/>
<path style=" stroke:none;fill-rule:nonzero;fill:rgb(90.196079%,90.196079%,90.196079%);fill-opacity:0.392157;" d="M 3.472656 2.234375 C 2.921875 2.234375 2.480469 2.675781 2.480469 3.226562 L 2.480469 3.351562 C 2.480469 2.800781 2.921875 2.355469 3.472656 2.355469 L 20.339844 2.355469 C 20.890625 2.355469 21.335938 2.800781 21.335938 3.351562 L 21.335938 3.226562 C 21.335938 2.675781 20.890625 2.234375 20.339844 2.234375 Z M 3.472656 2.234375 "/>
<path style=" stroke:none;fill-rule:nonzero;fill:rgb(0%,0%,0%);fill-opacity:0.196078;" d="M 3.472656 20.964844 C 2.921875 20.964844 2.480469 20.519531 2.480469 19.972656 L 2.480469 19.847656 C 2.480469 20.398438 2.921875 20.839844 3.472656 20.839844 L 20.339844 20.839844 C 20.890625 20.839844 21.335938 20.398438 21.335938 19.847656 L 21.335938 19.972656 C 21.335938 20.519531 20.890625 20.964844 20.339844 20.964844 Z M 3.472656 20.964844 "/>
<path style="fill:none;stroke-width:3;stroke-linecap:round;stroke-linejoin:miter;stroke:rgb(12.941177%,12.941177%,12.941177%);stroke-opacity:1;stroke-miterlimit:4;" d="M 74.076259 -168.671091 L 433.875234 -168.671091 C 445.624112 -168.671091 455.123205 -159.171998 455.123205 -147.506445 L 455.123205 212.292529 C 455.123205 224.041407 445.624112 233.5405 433.875234 233.5405 L 74.076259 233.5405 C 62.410707 233.5405 52.911614 224.041407 52.911614 212.292529 L 52.911614 -147.506445 C 52.911614 -159.171998 62.410707 -168.671091 74.076259 -168.671091 Z M 74.076259 -168.671091 " transform="matrix(0.0468795,0,0,0.0468795,0,10.079087)"/>
<path style=" stroke:none;fill-rule:nonzero;fill:url(#linear2);" d="M 9.316406 4.109375 C 9.148438 4.109375 8.980469 4.171875 8.851562 4.300781 L 5.597656 7.554688 C 5.34375 7.8125 5.34375 8.226562 5.597656 8.484375 L 6.992188 9.878906 C 7.25 10.136719 7.664062 10.136719 7.921875 9.878906 L 9.007812 8.792969 L 10.816406 10.601562 L 9.957031 11.460938 L 9.558594 10.847656 C 9.421875 10.632812 9.183594 10.503906 8.929688 10.503906 C 8.675781 10.503906 8.4375 10.632812 8.300781 10.847656 L 3.835938 17.792969 C 3.515625 18.292969 3.871094 18.949219 4.464844 18.949219 L 19.347656 18.949219 C 19.964844 18.949219 20.320312 18.242188 19.949219 17.75 L 16.972656 13.78125 C 16.78125 13.527344 16.472656 13.433594 16.191406 13.503906 L 13.667969 10.980469 L 14.882812 9.765625 C 15.441406 9.992188 16.074219 10.042969 16.703125 9.875 C 17.839844 9.570312 18.628906 8.632812 18.789062 7.542969 L 16.257812 8.222656 C 15.953125 8.304688 15.640625 8.121094 15.558594 7.816406 L 15.265625 6.714844 C 15.183594 6.410156 15.363281 6.097656 15.667969 6.015625 L 18.199219 5.335938 C 18.132812 5.257812 18.066406 5.179688 17.992188 5.105469 C 17.296875 4.402344 16.253906 4.085938 15.226562 4.359375 C 13.695312 4.769531 12.796875 6.328125 13.207031 7.855469 C 13.230469 7.949219 13.257812 8.039062 13.292969 8.125 L 12.054688 9.363281 L 10.246094 7.554688 L 11.175781 6.625 C 11.433594 6.367188 11.433594 5.953125 11.175781 5.695312 L 9.78125 4.300781 C 9.652344 4.171875 9.484375 4.109375 9.316406 4.109375 Z M 12.429688 12.21875 L 15.011719 14.796875 L 13.441406 16.886719 L 11.21875 13.429688 Z M 12.429688 12.21875 "/>
<path style=" stroke:none;fill-rule:nonzero;fill:rgb(100%,100%,100%);fill-opacity:0.916129;" d="M 9.316406 4.109375 C 9.148438 4.109375 8.980469 4.171875 8.851562 4.300781 L 5.597656 7.554688 C 5.398438 7.757812 5.355469 8.054688 5.46875 8.296875 C 5.5 8.230469 5.542969 8.167969 5.597656 8.109375 L 8.851562 4.859375 C 8.980469 4.730469 9.148438 4.664062 9.316406 4.664062 C 9.484375 4.664062 9.652344 4.730469 9.78125 4.859375 L 11.175781 6.253906 C 11.230469 6.308594 11.273438 6.371094 11.304688 6.4375 C 11.421875 6.195312 11.375 5.898438 11.175781 5.695312 L 9.78125 4.300781 C 9.652344 4.171875 9.484375 4.109375 9.316406 4.109375 Z M 15.945312 4.261719 C 15.707031 4.261719 15.464844 4.296875 15.226562 4.359375 C 13.851562 4.726562 12.988281 6.023438 13.121094 7.390625 C 13.234375 6.242188 14.042969 5.234375 15.226562 4.917969 C 16.144531 4.667969 17.078125 4.898438 17.761719 5.453125 L 18.199219 5.335938 C 18.132812 5.257812 18.066406 5.179688 17.992188 5.105469 C 17.460938 4.566406 16.722656 4.253906 15.945312 4.261719 Z M 15.304688 6.867188 C 15.246094 6.988281 15.226562 7.128906 15.265625 7.269531 L 15.558594 8.375 C 15.640625 8.679688 15.953125 8.859375 16.257812 8.777344 L 18.632812 8.140625 C 18.707031 7.949219 18.757812 7.75 18.789062 7.542969 L 16.257812 8.222656 C 15.953125 8.304688 15.640625 8.121094 15.558594 7.816406 Z M 10.523438 7.832031 L 10.246094 8.109375 L 12.054688 9.917969 L 13.292969 8.683594 C 13.257812 8.59375 13.230469 8.503906 13.207031 8.414062 C 13.191406 8.359375 13.179688 8.304688 13.167969 8.25 L 12.054688 9.363281 Z M 8.929688 10.503906 C 8.675781 10.503906 8.4375 10.632812 8.300781 10.847656 L 3.835938 17.792969 C 3.695312 18.015625 3.683594 18.265625 3.769531 18.476562 C 3.789062 18.433594 3.808594 18.390625 3.835938 18.351562 L 8.300781 11.402344 C 8.4375 11.191406 8.675781 11.058594 8.929688 11.058594 C 9.183594 11.058594 9.421875 11.1875 9.558594 11.402344 L 9.957031 12.019531 L 10.816406 11.160156 L 10.539062 10.878906 L 9.957031 11.460938 L 9.558594 10.847656 C 9.421875 10.632812 9.183594 10.503906 8.929688 10.503906 Z M 13.949219 11.257812 L 13.667969 11.535156 L 16.191406 14.058594 C 16.472656 13.992188 16.78125 14.082031 16.972656 14.335938 L 19.949219 18.304688 C 19.988281 18.359375 20.019531 18.417969 20.046875 18.476562 C 20.136719 18.246094 20.117188 17.976562 19.949219 17.75 L 16.972656 13.78125 C 16.78125 13.527344 16.472656 13.433594 16.191406 13.503906 Z M 11.4375 13.765625 L 11.21875 13.984375 L 13.441406 17.445312 L 15.011719 15.355469 L 14.773438 15.117188 L 13.441406 16.886719 Z M 11.4375 13.765625 "/>
<path style=" stroke:none;fill-rule:nonzero;fill:rgb(0%,0%,0%);fill-opacity:0.235294;" d="M 17.578125 5.414062 L 15.667969 5.925781 C 15.542969 5.957031 15.441406 6.027344 15.367188 6.121094 L 15.339844 6.019531 C 15.253906 6.148438 15.21875 6.316406 15.265625 6.480469 L 15.367188 6.867188 C 15.441406 6.773438 15.542969 6.703125 15.667969 6.667969 L 18.199219 5.992188 C 18.132812 5.910156 18.066406 5.832031 17.992188 5.761719 C 17.867188 5.632812 17.726562 5.515625 17.578125 5.414062 Z M 11.253906 6.441406 C 11.230469 6.476562 11.203125 6.507812 11.175781 6.535156 L 10.6875 7.019531 L 10.617188 6.949219 L 10.246094 7.320312 L 10.6875 7.765625 L 11.175781 7.28125 C 11.402344 7.050781 11.429688 6.699219 11.253906 6.441406 Z M 13.140625 7.324219 C 13.105469 7.5625 13.097656 7.8125 13.121094 8.0625 L 13.292969 7.894531 C 13.257812 7.804688 13.230469 7.714844 13.207031 7.625 C 13.179688 7.523438 13.15625 7.421875 13.140625 7.324219 Z M 18.789062 8.199219 L 18.539062 8.265625 C 18.191406 8.988281 17.542969 9.5625 16.703125 9.785156 C 16.074219 9.953125 15.441406 9.902344 14.882812 9.675781 L 14.113281 10.445312 L 14.042969 10.375 L 13.667969 10.746094 L 14.113281 11.191406 L 14.882812 10.417969 C 15.441406 10.644531 16.074219 10.699219 16.703125 10.53125 C 17.839844 10.226562 18.628906 9.285156 18.789062 8.199219 Z M 5.523438 8.300781 C 5.34375 8.558594 5.371094 8.910156 5.597656 9.136719 L 6.992188 10.53125 C 7.25 10.789062 7.664062 10.789062 7.921875 10.53125 L 9.007812 9.449219 L 10.371094 10.8125 L 10.816406 10.371094 L 10.441406 9.996094 L 10.371094 10.070312 L 9.007812 8.703125 L 7.921875 9.789062 C 7.664062 10.046875 7.25 10.046875 6.992188 9.789062 L 5.597656 8.394531 C 5.570312 8.367188 5.542969 8.335938 5.523438 8.300781 Z M 12.429688 12.128906 L 11.566406 12.992188 L 11.511719 12.90625 L 11.21875 13.195312 L 11.566406 13.734375 L 12.429688 12.871094 L 14.628906 15.070312 L 15.011719 14.566406 L 14.691406 14.246094 L 14.628906 14.328125 Z M 20 18.480469 C 19.875 18.699219 19.640625 18.859375 19.347656 18.859375 L 4.464844 18.859375 C 4.175781 18.859375 3.941406 18.699219 3.816406 18.480469 C 3.53125 18.976562 3.886719 19.601562 4.464844 19.601562 L 19.347656 19.601562 C 19.933594 19.601562 20.28125 18.96875 20 18.480469 Z M 20 18.480469 "/>
<path style="fill:none;stroke-width:3;stroke-linecap:round;stroke-linejoin:round;stroke:rgb(12.941177%,12.941177%,12.941177%);stroke-opacity:1;stroke-miterlimit:4;" d="M 198.731022 -127.341704 C 195.148031 -127.341704 191.56504 -126.008498 188.815302 -123.258761 L 119.405264 -53.848723 C 113.989115 -48.349248 113.989115 -39.516758 119.405264 -34.017283 L 149.152423 -4.270124 C 154.651898 1.229351 163.484388 1.229351 168.983863 -4.270124 L 192.148317 -27.434578 L 230.727967 11.145071 L 212.396384 29.476654 L 203.897195 16.39457 C 200.980807 11.811674 195.897959 9.061936 190.48181 9.061936 C 185.06566 9.061936 179.982813 11.811674 177.066424 16.39457 L 81.825519 164.547088 C 74.992839 175.212737 82.575448 189.2114 95.240905 189.2114 L 412.710588 189.2114 C 425.875998 189.2114 433.458607 174.129507 425.542696 163.630509 L 362.048759 78.971927 C 357.965816 73.555778 351.383111 71.555969 345.383684 73.055825 L 291.555491 19.227632 L 317.469683 -6.68656 C 329.385212 -1.853688 342.883923 -0.770458 356.299308 -4.353449 C 380.546993 -10.852828 397.378719 -30.850919 400.795059 -54.098699 L 346.800216 -39.600083 C 340.300836 -37.85025 333.634806 -41.766543 331.884973 -48.265922 L 325.63557 -71.763678 C 323.885737 -78.263058 327.718704 -84.929088 334.218084 -86.678921 L 388.212928 -101.177536 C 386.796396 -102.844044 385.379865 -104.510551 383.796683 -106.093733 C 368.964766 -121.092301 346.71689 -127.841657 324.802316 -122.00888 C 292.138769 -113.259716 272.973932 -80.012891 281.723097 -47.432669 C 282.223049 -45.43286 282.806327 -43.516376 283.556255 -41.683218 L 257.142111 -15.269073 L 218.562462 -53.848723 L 238.393901 -73.680162 C 243.893376 -79.179637 243.893376 -88.012127 238.393901 -93.511602 L 208.646742 -123.258761 C 205.897004 -126.008498 202.314013 -127.341704 198.731022 -127.341704 Z M 265.141347 45.641777 L 320.219421 100.636525 L 286.722619 145.215601 L 239.31048 71.472643 Z M 265.141347 45.641777 " transform="matrix(0.0468795,0,0,0.0468795,0,10.079087)"/>
</g>
</svg>
